; generated by Slic3r 1.0.0RC3 on 2014-03-05 at 09:01:48

; layer_height = 0.35
; perimeters = 3
; top_solid_layers = 3
; bottom_solid_layers = 3
; fill_density = 0.3
; perimeter_speed = 35
; infill_speed = 40
; travel_speed = 120
; nozzle_diameter = 0.4
; filament_diameter = 1.75
; extrusion_multiplier = 0.85
; perimeters extrusion width = 0.40mm
; infill extrusion width = 0.42mm
; solid infill extrusion width = 0.42mm
; top infill extrusion width = 0.42mm
; first layer extrusion width = 0.70mm

G21 ; set units to millimeters
M107
M104 S210 ; set temperature
G28 ; home all axes
G1 Z5 F50 ; lift nozzle
M109 S210 ; wait for temperature to be reached
G90 ; use absolute coordinates
G92 E0
M82 ; use absolute distances for extrusion
G1 F1800.000 E-3.00000
G92 E0
G1 Z0.350 F7200.000
G1 X29.338 Y30.071 F7200.000
G1 E3.00000 F1800.000
G1 X30.488 Y29.151 E3.11578 F840
G1 X31.788 Y28.461 E3.23149
G1 X33.198 Y28.021 E3.34761
G1 X67.248 Y20.841 E6.08340
G1 X68.598 Y20.681 E6.19027
G1 X69.958 Y20.751 E6.29733
G1 X92.878 Y23.911 E8.11629
G1 X94.258 Y24.231 E8.22766
G1 X95.558 Y24.781 E8.33863
G1 X96.738 Y25.571 E8.45027
G1 X97.758 Y26.541 E8.56093
G1 X98.588 Y27.691 E8.67243
G1 X99.198 Y28.971 E8.78390
G1 X99.578 Y30.331 E8.89492
G1 X99.708 Y31.741 E9.00624
G1 X99.708 Y47.201 E10.22166
G1 X99.548 Y48.761 E10.34495
G1 X99.088 Y50.261 E10.46829
G1 X98.338 Y51.641 E10.59177
G1 X97.328 Y52.851 E10.71568
G1 X96.108 Y53.831 E10.83871
G1 X94.708 Y54.551 E10.96248
G1 X93.198 Y54.981 E11.08591
G1 X69.848 Y59.191 E12.95122
G1 X68.578 Y59.321 E13.05159
G1 X67.298 Y59.231 E13.15247
G1 X27.048 Y53.321 E16.35074
G1 X25.668 Y52.991 E16.46229
G1 X24.378 Y52.421 E16.57317
G1 X23.198 Y51.631 E16.68481
G1 X22.188 Y50.641 E16.79599
G1 X21.368 Y49.481 E16.90768
G1 X20.768 Y48.201 E17.01881
G1 X20.408 Y46.831 E17.13017
G1 X20.288 Y45.421 E17.24143
G1 X20.428 Y44.011 E17.35282
G1 X20.828 Y42.651 E17.46427
G1 X21.448 Y41.381 E17.57538
G1 X26.428 Y33.231 E18.32626
G1 X27.008 Y32.401 E18.40586
G1 X27.688 Y31.661 E18.48487
G1 X29.269 Y30.137 E18.65752
G1 X29.778 Y30.521 F7200.000
G1 X30.838 Y29.681 E18.76385 F840
G1 X32.038 Y29.051 E18.87040
G1 X33.328 Y28.651 E18.97658
G1 X67.378 Y21.471 E21.71237
G1 X68.618 Y21.311 E21.81066
G1 X69.868 Y21.381 E21.90909
G1 X92.788 Y24.541 E23.72804
G1 X94.238 Y24.891 E23.84531
G1 X95.578 Y25.531 E23.96205
G1 X96.758 Y26.431 E24.07873
G1 X97.738 Y27.551 E24.19573
G1 X98.468 Y28.841 E24.31225
G1 X98.918 Y30.261 E24.42936
G1 X99.068 Y31.741 E24.54631
G1 X99.068 Y47.201 E25.76174
G1 X98.928 Y48.641 E25.87548
G1 X98.498 Y50.021 E25.98912
G1 X97.808 Y51.291 E26.10274
G1 X96.888 Y52.391 E26.21548
G1 X95.758 Y53.301 E26.32955
G1 X94.478 Y53.961 E26.44277
G1 X93.088 Y54.361 E26.55648
G1 X69.738 Y58.571 E28.42179
G1 X68.568 Y58.681 E28.51418
G1 X67.388 Y58.601 E28.60716
G1 X27.138 Y52.691 E31.80544
G1 X25.748 Y52.351 E31.91794
G1 X24.458 Y51.731 E32.03046
G1 X23.308 Y50.881 E32.14288
G1 X22.348 Y49.821 E32.25531
G1 X21.618 Y48.591 E32.36776
G1 X21.138 Y47.231 E32.48115
G1 X20.938 Y45.821 E32.59311
G1 X21.008 Y44.391 E32.70566
G1 X21.368 Y43.001 E32.81855
G1 X21.998 Y41.711 E32.93141
G1 X26.978 Y33.561 E33.68229
G1 X27.508 Y32.801 E33.75513
G1 X28.128 Y32.111 E33.82806
G1 X29.709 Y30.587 E34.00071
G1 X30.228 Y30.981 F7200.000
G1 X31.718 Y29.901 E34.14539 F840
G1 X33.458 Y29.271 E34.29087
G1 X67.508 Y22.091 E37.02666
G1 X68.648 Y21.951 E37.11695
G1 X69.788 Y22.011 E37.20670
G1 X92.708 Y25.171 E39.02565
G1 X94.018 Y25.491 E39.13167
G1 X95.248 Y26.071 E39.23858
G1 X96.328 Y26.891 E39.34519
G1 X97.218 Y27.911 E39.45161
G1 X97.888 Y29.101 E39.55898
G1 X98.298 Y30.391 E39.66539
G1 X98.438 Y31.741 E39.77210
G1 X98.438 Y47.201 E40.98752
G1 X98.298 Y48.511 E41.09109
G1 X97.918 Y49.771 E41.19456
G1 X97.288 Y50.931 E41.29834
G1 X96.438 Y51.941 E41.40212
G1 X95.418 Y52.761 E41.50501
G1 X94.238 Y53.371 E41.60944
G1 X92.978 Y53.731 E41.71246
G1 X69.628 Y57.941 E43.57777
G1 X68.558 Y58.041 E43.66226
G1 X67.488 Y57.981 E43.74651
G1 X27.238 Y52.071 E46.94479
G1 X25.968 Y51.751 E47.04775
G1 X24.788 Y51.191 E47.15044
G1 X23.738 Y50.411 E47.25327
G1 X22.858 Y49.441 E47.35624
G1 X22.188 Y48.321 E47.45884
G1 X21.758 Y47.081 E47.56202
G1 X21.568 Y45.791 E47.66453
G1 X21.638 Y44.481 E47.76767
G1 X21.968 Y43.221 E47.87006
G1 X22.538 Y42.041 E47.97309
G1 X27.518 Y33.891 E48.72397
G1 X27.998 Y33.201 E48.79005
G1 X28.578 Y32.571 E48.85737
G1 X30.159 Y31.047 E49.03002
G1 F1800.000 E46.03002
G92 E0
G1 X50.414 Y42.550 F7200.000
G1 E3.00000 F1800.000
G1 X50.625 Y42.235 E3.02983 F840
G1 X50.912 Y41.986 E3.05969
G1 X51.253 Y41.822 E3.08948
G1 X51.625 Y41.751 E3.11923
G1 X51.999 Y41.777 E3.14874
G1 X52.360 Y41.899 E3.17867
G1 X52.673 Y42.114 E3.20848
G1 X52.921 Y42.398 E3.23817
G1 X53.085 Y42.737 E3.26773
G1 X53.159 Y43.110 E3.29764
G1 X53.130 Y43.486 E3.32726
G1 X53.008 Y43.844 E3.35701
G1 X52.796 Y44.157 E3.38674
G1 X52.511 Y44.405 E3.41646
G1 X51.811 Y44.747 E3.47773
G1 X51.065 Y44.493 E3.53964
G1 X50.750 Y44.281 E3.56955
G1 X50.503 Y43.995 E3.59921
G1 X50.338 Y43.656 E3.62889
G1 X50.263 Y43.284 E3.65869
G1 X50.292 Y42.906 E3.68852
G1 X50.383 Y42.640 E3.71057
G1 X50.218 Y42.225 F7200.000
G1 X50.490 Y40.674 F7200.000
G1 X50.397 Y40.496 E3.72632 F840
G1 X52.018 Y38.913 E3.90450
G1 X50.506 Y37.384 E4.07354
G1 X58.278 Y37.384 E4.68454
G1 X64.946 Y33.061 E5.30936
G1 X65.099 Y33.190 E5.32510
G1 X63.324 Y37.256 E5.67386
G1 X85.951 Y38.776 E7.45669
G1 X87.408 Y37.553 E7.60628
G1 X87.658 Y37.754 E7.63150
G1 X86.783 Y39.420 E7.77946
G1 X87.636 Y41.130 E7.92965
G1 X87.390 Y41.322 E7.95413
G1 X85.857 Y40.016 E8.11245
G1 X70.915 Y43.077 E9.31154
G1 X67.993 Y48.767 E9.81443
G1 X62.778 Y43.886 E10.37599
G1 X54.374 Y43.886 E11.03675
G1 X54.440 Y43.034 E11.10392
G1 X54.300 Y42.329 E11.16039
G1 X53.991 Y41.692 E11.21609
G1 X53.526 Y41.157 E11.27181
G1 X52.934 Y40.751 E11.32819
G1 X52.252 Y40.520 E11.38482
G1 X51.549 Y40.471 E11.44023
G1 X50.583 Y40.656 E11.51753
G1 X49.272 Y41.961 F7200.000
G1 X49.037 Y42.648 E11.57462 F840
G1 X48.982 Y43.362 E11.63088
G1 X49.087 Y43.886 E11.67290
G1 X32.021 Y43.886 E13.01461
G1 X33.749 Y42.098 E13.21010
G1 X34.984 Y43.390 E13.35057
G1 X36.261 Y42.130 E13.49156
G1 X37.459 Y43.460 E13.63229
G1 X38.741 Y42.123 E13.77795
G1 X39.951 Y43.398 E13.91613
G1 X41.241 Y42.118 E14.05905
G1 X42.452 Y43.443 E14.20023
G1 X43.734 Y42.123 E14.34489
G1 X44.944 Y43.408 E14.48363
G1 X46.231 Y42.119 E14.62682
G1 X47.443 Y43.382 E14.76443
G1 X49.044 Y41.817 E14.94045
G1 X49.191 Y41.910 E14.95408
G1 F1800.000 E11.95408
G92 E0
G1 X48.983 Y36.749 F7200.000
G1 E3.00000 F1800.000
G1 X58.090 Y36.749 E3.71597 F840
G1 X66.374 Y31.379 E4.49214
G1 X66.527 Y31.508 E4.50789
G1 X64.268 Y36.683 E4.95174
G1 X85.738 Y38.125 E6.64343
G1 X89.471 Y34.990 E7.02670
G1 X89.721 Y35.191 E7.05191
G1 X87.497 Y39.428 E7.42809
G1 X89.594 Y43.632 E7.79744
G1 X89.349 Y43.824 E7.82192
G1 X85.681 Y40.701 E8.20061
G1 X71.341 Y43.638 E9.35137
G1 X68.174 Y49.807 E9.89652
G1 X62.527 Y44.521 E10.50457
G1 X53.450 Y44.521 E11.21818
G1 X53.757 Y43.614 E11.29348
G1 X53.799 Y43.072 E11.33623
G1 X53.692 Y42.533 E11.37942
G1 X53.456 Y42.045 E11.42205
G1 X53.099 Y41.635 E11.46475
G1 X52.647 Y41.325 E11.50785
G1 X52.126 Y41.149 E11.55113
G1 X51.587 Y41.111 E11.59359
G1 X51.053 Y41.213 E11.63636
G1 X50.559 Y41.450 E11.67940
G1 X50.145 Y41.811 E11.72260
G1 X49.839 Y42.265 E11.76565
G1 X49.665 Y42.777 E11.80815
G1 X49.623 Y43.323 E11.85119
G1 X49.730 Y43.861 E11.89433
G1 X50.053 Y44.521 E11.95210
G1 X30.522 Y44.521 E13.48756
G1 X33.752 Y41.181 E13.85286
G1 X34.997 Y42.484 E13.99454
G1 X36.288 Y41.211 E14.13706
G1 X37.474 Y42.527 E14.27630
G1 X38.744 Y41.201 E14.42062
G1 X39.964 Y42.489 E14.56009
G1 X41.263 Y41.200 E14.70395
G1 X42.466 Y42.516 E14.84414
G1 X43.741 Y41.203 E14.98802
G1 X44.957 Y42.495 E15.12748
G1 X46.240 Y41.210 E15.27020
G1 X47.457 Y42.479 E15.40845
G1 X51.116 Y38.905 E15.81058
G1 X49.050 Y36.816 E16.04158
G1 X48.184 Y36.845 F7200.000
G1 X46.894 Y38.257 E16.19188 F840
G1 X45.705 Y36.807 E16.33924
G1 X44.393 Y38.254 E16.49277
G1 X43.218 Y36.805 E16.63939
G1 X41.930 Y38.231 E16.79046
G1 X40.710 Y36.819 E16.93710
G1 X39.387 Y38.233 E17.08931
G1 X38.181 Y36.810 E17.23589
G1 X36.953 Y38.182 E17.38065
G1 X35.719 Y36.837 E17.52411
G1 X34.392 Y38.162 E17.67149
G1 X33.671 Y37.367 E17.75588
G1 X34.969 Y36.113 E17.89778
G1 X57.902 Y36.113 E19.70064
G1 X67.802 Y29.696 E20.62817
G1 X67.955 Y29.826 E20.64392
G1 X65.212 Y36.109 E21.18287
G1 X85.525 Y37.474 E22.78342
G1 X91.452 Y32.496 E23.39190
G1 X91.452 Y33.261 E23.45202
G1 X88.211 Y39.435 E24.00024
G1 X91.552 Y46.134 E24.58875
G1 X91.307 Y46.326 E24.61323
G1 X85.505 Y41.386 E25.21229
G1 X71.767 Y44.200 E26.31472
G1 X68.355 Y50.846 E26.90213
G1 X62.276 Y45.157 E27.55666
G1 X29.023 Y45.157 E30.17092
G1 X33.755 Y40.264 E30.70602
G1 X35.011 Y41.578 E30.84892
G1 X36.315 Y40.291 E30.99295
G1 X37.488 Y41.593 E31.13071
G1 X38.747 Y40.280 E31.27369
G1 X39.978 Y41.580 E31.41445
G1 X41.286 Y40.282 E31.55925
G1 X42.480 Y41.589 E31.69846
G1 X43.748 Y40.283 E31.84155
G1 X44.971 Y41.582 E31.98175
G1 X46.249 Y40.301 E32.12399
G1 X47.472 Y41.576 E32.26287
G1 X50.215 Y38.897 E32.56428
G1 X48.251 Y36.913 E32.78375
G1 X47.722 Y36.409 F7200.000
G1 F1800.000 E29.78375
G92 E0
G1 X49.382 Y36.763 F7200.000
G1 X51.997 Y37.835 F7200.000
G1 E3.00000 F1800.000
G1 X57.597 Y43.435 E3.62689 F840
G1 X56.692 Y43.435 F7200.000
G1 X52.413 Y39.157 E4.10583 F840
G1 X51.956 Y39.604 E4.15649
G1 X52.470 Y40.118 E4.21407
G1 F1800.000 E1.21407
G92 E0
G1 X52.902 Y37.835 F7200.000
G1 E3.00000 F1800.000
G1 X58.502 Y43.435 E3.62689 F840
G1 X59.407 Y43.435 E3.69854
G1 X53.807 Y37.835 E4.32543
G1 X54.712 Y37.835 E4.39707
G1 X60.312 Y43.435 E5.02396
G1 X61.217 Y43.435 E5.09561
G1 X55.617 Y37.835 E5.72250
G1 X56.522 Y37.835 E5.79414
G1 X62.122 Y43.435 E6.42103
G1 F1800.000 E3.42103
G92 E0
G1 X64.064 Y44.471 F7200.000
G1 E3.00000 F1800.000
G1 X57.427 Y37.835 E3.74292 F840
G1 X58.332 Y37.835 E3.81457
G1 X67.854 Y47.356 E4.88043
G1 X68.161 Y46.758 E4.93364
G1 X58.912 Y37.510 E5.96895
G1 X59.461 Y37.154 E6.02075
G1 X68.468 Y46.160 E7.02897
G1 X68.775 Y45.562 E7.08218
G1 X60.011 Y36.798 E8.06330
G1 X60.560 Y36.442 E8.11510
G1 X69.082 Y44.964 E9.06913
G1 X69.389 Y44.366 E9.12235
G1 X61.109 Y36.086 E10.04929
G1 X61.658 Y35.730 E10.10109
G1 X62.939 Y37.011 E10.24455
G1 X63.214 Y36.381 E10.29897
G1 X62.207 Y35.374 E10.41175
G1 X62.756 Y35.018 E10.46355
G1 X63.489 Y35.751 E10.54566
G1 X63.764 Y35.121 E10.60007
G1 X63.305 Y34.662 E10.65150
G1 X63.854 Y34.306 E10.70330
G1 X64.039 Y34.491 E10.72404
G1 F1800.000 E7.72404
G92 E0
G1 X63.658 Y37.730 F7200.000
G1 E3.00000 F1800.000
G1 X69.696 Y43.768 E3.67589 F840
G1 X70.003 Y43.170 E3.72911
G1 X64.629 Y37.796 E4.33076
G1 X65.599 Y37.861 E4.40773
G1 X70.310 Y42.572 E4.93514
G1 X70.932 Y42.289 E4.98922
G1 X66.569 Y37.926 E5.47761
G1 X67.539 Y37.991 E5.55458
G1 X71.683 Y42.135 E6.01844
G1 X72.703 Y42.250 E6.09974
G1 X68.510 Y38.056 E6.56922
G1 X69.480 Y38.122 E6.64620
G1 X73.455 Y42.096 E7.09115
G1 X74.206 Y41.942 E7.15185
G1 X70.450 Y38.187 E7.57228
G1 X71.421 Y38.252 E7.64926
G1 X74.957 Y41.789 E8.04517
G1 X75.708 Y41.635 E8.10587
G1 X72.391 Y38.317 E8.47725
G1 X73.361 Y38.382 E8.55423
G1 X76.460 Y41.481 E8.90109
G1 X77.211 Y41.327 E8.96179
G1 X74.331 Y38.448 E9.28413
G1 X75.302 Y38.513 E9.36111
G1 X77.962 Y41.173 E9.65892
G1 X78.713 Y41.019 E9.71962
G1 X76.272 Y38.578 E9.99291
G1 X77.242 Y38.643 E10.06989
G1 X79.464 Y40.865 E10.31866
G1 X80.216 Y40.711 E10.37936
G1 X78.213 Y38.708 E10.60360
G1 X79.183 Y38.773 E10.68058
G1 X80.967 Y40.558 E10.88030
G1 X81.718 Y40.404 E10.94099
G1 X80.153 Y38.839 E11.11619
G1 X81.123 Y38.904 E11.19317
G1 X82.469 Y40.250 E11.34384
G1 X83.220 Y40.096 E11.40454
G1 X82.094 Y38.969 E11.53069
G1 X83.064 Y39.034 E11.60767
G1 X83.972 Y39.942 E11.70929
G1 X84.056 Y39.121 E11.77463
G1 X84.034 Y39.099 E11.77703
G1 F1800.000 E8.77703
G92 E0
G1 X54.779 Y42.427 F7200.000
G1 E3.00000 F1800.000
G1 X55.787 Y43.435 E3.11283 F840
G1 X54.862 Y43.416 E3.18602
G1 X54.882 Y43.435 E3.18818
G1 F1800.000 E0.18818
G92 E0
G1 X61.470 Y44.507 F7200.000
G1 X60.675 Y47.507 F7200.000
G1 X50.675 Y47.507 F7200.000
G1 X47.649 Y44.507 F7200.000
G1 X49.595 Y41.387 F7200.000
G1 E3.00000 F1800.000
G1 X49.563 Y41.355 E3.00356 F840
G1 F1800.000 E0.00356
G92 E0
G1 X47.649 Y44.507 F7200.000
G1 X46.087 Y43.228 F7200.000
G1 E3.00000 F1800.000
G1 X46.077 Y43.218 E3.00112 F840
G1 F1800.000 E0.00112
G92 E0
G1 X43.612 Y43.228 F7200.000
G1 E3.00000 F1800.000
G1 X43.600 Y43.216 E3.00132 F840
G1 F1800.000 E0.00132
G92 E0
G1 X41.090 Y43.228 F7200.000
G1 E3.00000 F1800.000
G1 X41.080 Y43.218 E3.00111 F840
G1 F1800.000 E0.00111
G92 E0
G1 X38.626 Y43.228 F7200.000
G1 E3.00000 F1800.000
G1 X38.614 Y43.215 E3.00141 F840
G1 F1800.000 E0.00141
G92 E0
G1 X36.119 Y43.228 F7200.000
G1 E3.00000 F1800.000
G1 X36.109 Y43.218 E3.00111 F840
G1 F1800.000 E0.00111
G92 E0
G1 X33.606 Y43.228 F7200.000
G1 E3.00000 F1800.000
G1 X33.593 Y43.215 E3.00140 F840
G1 F1800.000 E0.00140
G92 E0
G1 X37.649 Y44.507 F7200.000
G1 X32.577 Y42.417 F7200.000
G1 X28.305 Y42.519 F7200.000
G1 X32.377 Y35.350 F7200.000
G1 X41.735 Y33.763 F7200.000
G1 X39.872 Y36.763 F7200.000
G1 X34.410 Y37.499 F7200.000
G1 E3.00000 F1800.000
G1 X34.303 Y37.393 E3.00610 F840
G1 X34.535 Y37.161 E3.01943 F840
G1 X34.642 Y37.267 E3.02553 F840
G1 X34.874 Y37.035 E3.03886 F840
G1 X34.768 Y36.930 E3.04491 F840
G1 X35.005 Y36.702 E3.05824 F840
G1 X35.106 Y36.803 E3.06406 F840
G1 X35.338 Y36.571 E3.07739 F840
G1 X35.328 Y36.561 E3.07797 F840
G1 X36.782 Y37.023 F7200.000
G1 X36.947 Y37.188 E3.09629 F840
G1 F1800.000 E0.09629
G92 E0
G1 X37.351 Y36.763 F7200.000
G1 X41.735 Y33.763 F7200.000
G1 X39.872 Y36.763 F7200.000
G1 X39.326 Y37.143 F7200.000
G1 E3.00000 F1800.000
G1 X39.412 Y37.229 E3.00955 F840
G1 F1800.000 E0.00955
G92 E0
G1 X39.872 Y36.763 F7200.000
G1 X41.735 Y33.763 F7200.000
G1 X42.380 Y36.763 F7200.000
G1 X41.844 Y37.125 F7200.000
G1 E3.00000 F1800.000
G1 X41.941 Y37.222 E3.01084 F840
G1 F1800.000 E0.01084
G92 E0
G1 X42.380 Y36.763 F7200.000
G1 X41.735 Y33.763 F7200.000
G1 X44.868 Y36.763 F7200.000
G1 X44.353 Y37.160 F7200.000
G1 E3.00000 F1800.000
G1 X44.421 Y37.229 E3.00756 F840
G1 F1800.000 E0.00756
G92 E0
G1 X44.868 Y36.763 F7200.000
G1 X41.735 Y33.763 F7200.000
G1 X51.735 Y33.763 F7200.000
G1 X47.379 Y36.763 F7200.000
G1 X46.849 Y37.165 F7200.000
G1 E3.00000 F1800.000
G1 X46.921 Y37.237 E3.00801 F840
G1 F1800.000 E0.00801
G92 E0
G1 X47.379 Y36.763 F7200.000
G1 X51.735 Y33.763 F7200.000
G1 X69.060 Y26.081 F7200.000
G1 X79.214 Y34.694 F7200.000
G1 X78.249 Y37.636 F7200.000
G1 X85.335 Y40.757 F7200.000
G1 X84.875 Y39.523 F7200.000
G1 E3.00000 F1800.000
G1 X84.895 Y39.542 E3.00214 F840
G1 X86.254 Y39.753 F7200.000
G1 X86.343 Y39.841 E3.00686 F840
G1 X86.424 Y38.996 F7200.000
G1 X86.413 Y38.986 E3.00744 F840
G1 F1800.000 E0.00744
G92 E0
G1 X87.690 Y37.205 F7200.000
G1 E3.00000 F1800.000
G1 X87.624 Y37.139 E3.00373 F840
G1 X87.866 Y36.923 E3.01675 F840
G1 X88.155 Y37.211 E3.03312 F840
G1 X88.312 Y36.910 E3.04673 F840
G1 X88.115 Y36.713 E3.05791 F840
G1 X88.364 Y36.504 E3.07096 F840
G1 X88.470 Y36.610 E3.07696 F840
G1 X88.628 Y36.309 E3.09058 F840
G1 X88.614 Y36.295 E3.09140 F840
G1 F1800.000 E0.09140
G92 E0
G1 X89.753 Y34.642 F7200.000
G1 E3.00000 F1800.000
G1 X89.687 Y34.576 E3.00373 F840
G1 X89.929 Y34.360 E3.01675 F840
G1 X90.218 Y34.648 E3.03312 F840
G1 X90.376 Y34.348 E3.04673 F840
G1 X90.178 Y34.150 E3.05791 F840
G1 X90.428 Y33.941 E3.07096 F840
G1 X90.533 Y34.047 E3.07696 F840
G1 X90.691 Y33.746 E3.09058 F840
G1 X90.677 Y33.732 E3.09140 F840
G1 F1800.000 E0.09140
G92 E0
G1 X88.062 Y40.593 F7200.000
G1 X87.980 Y41.429 F7200.000
G1 E3.00000 F1800.000
G1 X88.009 Y41.458 E3.00249 F840
G1 X87.980 Y41.429 F7200.000
G1 X87.603 Y41.736 E3.03158 F840
G1 X87.692 Y41.825 E3.03906 F840
G1 F1800.000 E0.03906
G92 E0
G1 X89.561 Y44.238 F7200.000
G1 E3.00000 F1800.000
G1 X89.938 Y43.931 E3.02909 F840
G1 X89.967 Y43.960 E3.03158 F840
G1 X89.650 Y44.327 F7200.000
G1 X89.561 Y44.238 E3.03906 F840
M106 S200
M104 S195 ; set temperature
